X: 08072
T: MARTYN'S JIG
C: Bob McQuillen 12 July 90
B: Bob's Note Book 8 #72
%R: jig
Z: 2021 John Chambers <jc:trillian.mit.edu>
M: 6/8
L: 1/8
K: G
D \
| GEG DEG | FGA BGB | cde dBG | EAG FED |\
| GEG DEG | FGA BAB | cde dBA | BGG G2 :|
|: A \
| BGG GAB | cAA ABc | d^cd eag | edd dBc |\
| dBd ece | dge dBG | BdB cAF | AGG G2 :|
%%begintext align
%% Lots of great music and musicians come from
%% Edinburgh, Scotland, and one of these is Martyn
%% Bennett. Sarah and I stopped at the Hammond-Lee
%% (Bennett and Lorraine) House in Brookline one time
%% and that's when I had the pleasure of hearing him play. At age
%% 19 he is accomplished on piano, whistle, & pipes. Hope he likes this
%% tune!
%%endtext
% %begintext align
% % NOTE: A most beautiful piece of music is enttitled "Lament for Elizabeth Anna Forbes", an air written
% % by Saran Forbes Bauhan, and arranged by her and Martyn Bennett, who plays piano with her
% % on this composition, along with Rick Watson on keyboard. You can hear it on Sarah's new album,
% % "CHASING THE NEW MOON." Write to: Whistler's Music; Box 443; Dublin, NH 03444
% %endtext

%%sep 1 1 500

%%sep 1 1 500

